lib/functional/media/shuffle-angular.svg

<svg xmlns="http://www.w3.org/2000/svg" fill="none" stroke="currentColor" aria-hidden="true" viewBox="0 0 32 32"><g id="Icon-ShuffleAngular"><g clip-path="url(#clip0_12_2995)"><g id="size=md (32px)"><path id="Vector" stroke-linecap="round" stroke-linejoin="round" stroke-width="2" d="M4 9.00003H10.4875C10.6474 8.99881 10.8051 9.03694 10.9468 9.11105C11.0885 9.18517 11.2098 9.29299 11.3 9.42503L20.7 22.575C20.7902 22.7071 20.9115 22.8149 21.0532 22.889C21.1949 22.9631 21.3526 23.0012 21.5125 23H29"/><path id="Vector_2" stroke-linecap="round" stroke-linejoin="round" stroke-width="2" d="M26 6L29 9L26 12"/><path id="Vector_3" stroke-linecap="round" stroke-linejoin="round" stroke-width="2" d="M26 20L29 23L26 26"/><path id="Vector_4" stroke-linecap="round" stroke-linejoin="round" stroke-width="2" d="M18.4629 12.5625L20.7004 9.42503C20.7906 9.29299 20.9119 9.18517 21.0536 9.11105C21.1953 9.03694 21.353 8.99881 21.5129 9.00003H29.0004"/><path id="Vector_5" stroke-linecap="round" stroke-linejoin="round" stroke-width="2" d="M4 23H10.4875C10.6474 23.0012 10.8051 22.9631 10.9468 22.889C11.0885 22.8149 11.2098 22.707 11.3 22.575L13.5375 19.4375"/></g></g></g><defs><clipPath id="clip0_12_2995"><rect width="32" height="32" fill="white" rx="5"/></clipPath></defs></svg>

<svg xmlns="http://www.w3.org/2000/svg" fill="none" stroke="currentColor" aria-hidden="true" viewBox="0 0 32 32"><g stroke="#101828" stroke-linecap="round" stroke-linejoin="round" stroke-width="2" clip-path="url(#a)"><path d="M4 9h6.488a.975.975 0 0 1 .812.425l9.4 13.15a.974.974 0 0 0 .813.425H29M26 6l3 3-3 3"/><path d="m26 20 3 3-3 3m-7.537-13.437L20.7 9.425A.975.975 0 0 1 21.513 9H29M4 23h6.488a.975.975 0 0 0 .812-.425l2.237-3.137"/></g><defs><clipPath id="a"><rect width="32" height="32" fill="#fff" rx="5"/></clipPath></defs></svg>
